outputs/icons/date_time/timecard_approve_round.svg

<svg xmlns="http://www.w3.org/2000/svg" width="1200" height="1200" fill="none"><path fill="#000" fill-rule="evenodd" d="M1000 200H200c-55.5 0-99.5 44.5-99.5 100l-.5 600c0 55.5 44.5 100 100 100h460.35c-6.74-23.84-10.35-49-10.35-75 0-151.88 123.12-275 275-275 66.48 0 127.455 23.59 175 62.86V300c0-55.5-44.5-100-100-100M750 575c0 151.88-123.12 275-275 275-151.878 0-275-123.12-275-275 0-151.879 123.122-275 275-275 151.88 0 275 123.121 275 275"/><path fill="#000" fill-rule="evenodd" d="M1150 925c0 124.265-100.735 225-225 225s-225-100.735-225-225 100.735-225 225-225 225 100.735 225 225m-262.37 49.695-53.59-53.59c-11.645-11.65-30.615-11.65-42.265 0-11.65 11.645-11.65 30.615 0 42.265l71.89 71.895c12.98 12.98 33.945 12.98 46.925 0l147.64-147.635c11.645-11.65 11.645-30.62 0-42.265-11.65-11.65-30.62-11.65-42.265 0z"/><path fill="#000" d="M470.559 400h2.095c13.971 0 25.148 10.796 25.148 24.291v153.164l135.163 77.595c12.225 6.75 16.065 21.93 8.73 33.4-6.985 11.47-22.35 14.845-34.225 8.095L462.526 612.54c-10.827-6.07-17.113-17.205-17.113-29.01V424.291c0-13.495 11.175-24.291 25.146-24.291"/></svg>

<svg width="1200" height="1200" viewBox="0 0 1200 1200" fill="none" xmlns="http://www.w3.org/2000/svg"><path fill-rule="evenodd" d="M1000 200H200C144.5 200 100.5 244.5 100.5 300L100 900C100 955.5 144.5 1000 200 1000H660.35C653.61 976.16 650 951 650 925C650 773.12 773.12 650 925 650C991.48 650 1052.455 673.59 1100 712.86V300C1100 244.5 1055.5 200 1000 200ZM750 575C750 726.88 626.88 850 475 850C323.122 850 200 726.88 200 575C200 423.121 323.122 300 475 300C626.88 300 750 423.121 750 575Z" fill="#1D1E23"/><path fill-rule="evenodd" d="M1150 925C1150 1049.265 1049.265 1150 925 1150C800.735 1150 700 1049.265 700 925C700 800.735 800.735 700 925 700C1049.265 700 1150 800.735 1150 925ZM887.63 974.695L834.04 921.105C822.395 909.455 803.425 909.455 791.775 921.105C780.125 932.75 780.125 951.72 791.775 963.37L863.665 1035.265C876.645 1048.245 897.61 1048.245 910.59 1035.265L1058.23 887.63C1069.875 875.98 1069.875 857.01 1058.23 845.365C1046.58 833.715 1027.61 833.715 1015.965 845.365L887.63 974.695Z" fill="#1D1E23"/><path d="M470.559 400H472.654C486.625 400 497.802 410.796 497.802 424.291V577.455L632.965 655.05C645.19 661.8 649.03 676.98 641.695 688.45C634.71 699.92 619.345 703.295 607.47 696.545L462.526 612.54C451.699 606.47 445.413 595.335 445.413 583.53V424.291C445.413 410.796 456.588 400 470.559 400Z" fill="#1D1E23"/></svg>
